X: 170
T: Jackson's rolling jig
C: anon.
O: Ireland
B: Francis O'Neill: "The Dance Music of Ireland" (1907) no. 170
R: Double jig
Z: Transcribed by Frank Nordberg - http://www.musicaviva.com
F: http://www.musicaviva.com/abc/tunes/ireland/oneill-1001/oneill-1001-017
0.abc
m: Nn3 = n o/n/ (3m/n/-n/
M: 6/8
L: 1/8
K: G
"   ~"NG3 BGB|AFA (c2({d/c/}A))|"   ~"NG3 BGB|cdA ecA|"   ~"NG3 BGB|AFA (
c2({d/c/}A))|GBd d2f|({a}g)dB ({d}c)AF:|
|:gdc BGB|AFA (c2({d/c/}A))|gdc BGB|dcA ecA|gdc BGB|AFA (c2({d/c/}A))|GBd
 d2f|({a}g)dB ({d}c)AF:|
W:
W:
W: From Musica Viva - http://www.musicaviva.com
W: the Internet center for free sheet music downloads.


